X: 1
T: Lady Julia Griffin
N: for the dance Noces d'Argent
C: Yvon Guilcher
R: strathspey + reel
Z: 2020 John Chambers <jc:trillian.mit.edu>
M: C
L: 1/16
K: C
|:\
"C"C4 E3G c3G "F/A"A3G | "C"EG3 c3e "F"fedc Ac3 |\
"C/E"C4 E3G c3G "F"A3G | "C"EG3 "C7"c3G [1 "F"A4 Ac3 :|2 "F"A4 |]
|: "G7"z2B2 |\
"C"c3e g3e "G"d3c "Em/B"de3 | "C"c3e g3e "F"fedc A4 |\
"C"c3e g3e "G7"d3c AG3 |1 "C7"E3D EG3 "F"A4 :|2 "Em"E3D EG3 "Am"A4 e4 |]
%P: reel:
M: 2/4
K: Am
|:"Am"A2ed cAAB | "C"cedc "G"BGdB |\
  "Am"Aeed cAAB |[1 "C"cA"G"BG "Am"EAA2 :|[2 "Em"cABG "Am"A2B2 |]
|: "C"c2ec gcec | "G"dedc "G7"BGdB |\
[1 "C"c2ec gcec | "G7"dBGB "Am"cAAB :|\
[2 "Am"Aeed cAAB | "Em"cABG "Am"A4 |]
